X:44
T:Reel 44
M:4/4
K:Amin
L:1/8
ED|CA,A,B, CA,B,C|B,G,G,A, B,CDB,|CA,A,B, CDEA||GEDC A,2:||2CEDB, CA,A,2|EDAG A2GA|BAGA AGEG|AGE^F G2AG||EDB,G, A,2A,2:||2EDCE A,2|
